packages/foundations/assets/icons/functional/images/audio & video/fast_forward_10.svg

<svg xmlns="http://www.w3.org/2000/svg" width="32" height="32" fill="none"><path fill="#1A1C1F" fill-rule="evenodd" d="M14.07 5.122a.95.95 0 0 0-.512.748c-.043.451.069.638.841 1.409.382.381.694.711.694.734 0 .022-.21.04-.468.04-1.681 0-3.787.625-5.345 1.587-1.442.889-2.77 2.201-3.625 3.579a10.93 10.93 0 0 0-1.091 9.228 10.9 10.9 0 0 0 1.934 3.5c.505.611.875.736 1.419.477.37-.175.579-.676.487-1.167-.021-.115-.158-.342-.346-.577a9.2 9.2 0 0 1-1.88-3.933c-.105-.49-.121-.715-.122-1.787-.001-1.075.014-1.294.118-1.769a9.1 9.1 0 0 1 1.352-3.197c.529-.797 1.609-1.876 2.417-2.414 1.458-.972 2.966-1.47 4.644-1.534l.8-.031-.838.846c-.513.517-.87.923-.92 1.044-.284.686.17 1.375.904 1.375.134 0 .321-.033.415-.074.096-.042.948-.854 1.916-1.827 1.621-1.629 1.747-1.768 1.78-1.978l.038-.24a4 4 0 0 0-.036-.254c-.036-.229-.121-.324-1.755-1.966-1.125-1.13-1.791-1.76-1.931-1.826-.274-.128-.64-.125-.89.007m9.262 10.931c-1.495.219-2.648 1.194-3.124 2.64-.119.361-.124.448-.143 2.572-.021 2.408.003 2.696.285 3.409.471 1.194 1.419 1.969 2.741 2.243.493.102 1.574.068 2.056-.063 1.486-.407 2.512-1.541 2.776-3.067.07-.409.081-.84.064-2.553-.024-2.305-.038-2.41-.45-3.248-.686-1.395-2.425-2.195-4.205-1.933m-10.308 1.074c-.871.444-1.65.868-1.73.942-.08.075-.185.24-.233.366-.185.483.03.972.537 1.22.403.197.549.166 1.525-.323l.797-.399v6.08l-1.053.002c-.907.001-1.084.014-1.269.099-.741.336-.754 1.394-.021 1.768.205.104.293.107 3.507.093l3.298-.015.197-.15q.546-.416.381-1.067c-.073-.289-.233-.482-.518-.628-.176-.091-.322-.102-1.345-.102H15.95l-.015-3.986c-.014-3.592-.024-4.003-.103-4.147-.194-.35-.55-.56-.952-.56-.245 0-.428.08-1.856.807m12.174 1.108c.358.176.556.402.713.815.075.195.091.533.105 2.23.012 1.369-.002 2.1-.044 2.318-.19.977-.819 1.425-1.999 1.424-.957-.001-1.443-.239-1.746-.853l-.174-.353-.016-2.124c-.019-2.333-.002-2.519.272-2.978.325-.543 1.042-.771 2.136-.679.31.026.505.078.753.2"/></svg>

<svg width="32" height="32" viewBox="0 0 32 32" fill="none" xmlns="http://www.w3.org/2000/svg"><path d="M14.070 5.122 C 13.779 5.276,13.589 5.554,13.558 5.870 C 13.515 6.321,13.627 6.508,14.399 7.279 C 14.781 7.660,15.093 7.990,15.093 8.013 C 15.093 8.035,14.883 8.053,14.625 8.053 C 12.944 8.053,10.838 8.678,9.280 9.640 C 7.838 10.529,6.510 11.841,5.655 13.219 C 3.935 15.992,3.540 19.335,4.564 22.447 C 4.980 23.711,5.643 24.912,6.498 25.947 C 7.003 26.558,7.373 26.683,7.917 26.424 C 8.287 26.249,8.496 25.748,8.404 25.257 C 8.383 25.142,8.246 24.915,8.058 24.680 C 7.103 23.490,6.497 22.221,6.178 20.747 C 6.073 20.257,6.057 20.032,6.056 18.960 C 6.055 17.885,6.070 17.666,6.174 17.191 C 6.438 15.994,6.857 15.003,7.526 13.994 C 8.055 13.197,9.135 12.118,9.943 11.580 C 11.401 10.608,12.909 10.110,14.587 10.046 L 15.387 10.015 14.549 10.861 C 14.036 11.378,13.679 11.784,13.629 11.905 C 13.345 12.591,13.799 13.280,14.533 13.280 C 14.667 13.280,14.854 13.247,14.948 13.206 C 15.044 13.164,15.896 12.352,16.864 11.379 C 18.485 9.750,18.611 9.611,18.644 9.401 C 18.664 9.277,18.681 9.169,18.682 9.161 C 18.684 9.153,18.667 9.039,18.646 8.907 C 18.610 8.678,18.525 8.583,16.891 6.941 C 15.766 5.811,15.100 5.181,14.960 5.115 C 14.686 4.987,14.320 4.990,14.070 5.122 M23.332 16.053 C 21.837 16.272,20.684 17.247,20.208 18.693 C 20.089 19.054,20.084 19.141,20.065 21.265 C 20.044 23.673,20.068 23.961,20.350 24.674 C 20.821 25.868,21.769 26.643,23.091 26.917 C 23.584 27.019,24.665 26.985,25.147 26.854 C 26.633 26.447,27.659 25.313,27.923 23.787 C 27.993 23.378,28.004 22.947,27.987 21.234 C 27.963 18.929,27.949 18.824,27.537 17.986 C 26.851 16.591,25.112 15.791,23.332 16.053 M13.024 17.127 C 12.153 17.571,11.374 17.995,11.294 18.069 C 11.214 18.144,11.109 18.309,11.061 18.435 C 10.876 18.918,11.091 19.407,11.598 19.655 C 12.001 19.852,12.147 19.821,13.123 19.332 L 13.920 18.933 13.920 21.973 L 13.920 25.013 12.867 25.015 C 11.960 25.016,11.783 25.029,11.598 25.114 C 10.857 25.450,10.844 26.508,11.577 26.882 C 11.782 26.986,11.870 26.989,15.084 26.975 L 18.382 26.960 18.579 26.810 C 18.943 26.532,19.070 26.177,18.960 25.743 C 18.887 25.454,18.727 25.261,18.442 25.115 C 18.266 25.024,18.120 25.013,17.097 25.013 L 15.950 25.013 15.935 21.027 C 15.921 17.435,15.911 17.024,15.832 16.880 C 15.638 16.530,15.282 16.320,14.880 16.320 C 14.635 16.320,14.452 16.400,13.024 17.127 M25.198 18.235 C 25.556 18.411,25.754 18.637,25.911 19.050 C 25.986 19.245,26.002 19.583,26.016 21.280 C 26.028 22.649,26.014 23.380,25.972 23.598 C 25.782 24.575,25.153 25.023,23.973 25.022 C 23.016 25.021,22.530 24.783,22.227 24.169 L 22.053 23.816 22.037 21.692 C 22.018 19.359,22.035 19.173,22.309 18.714 C 22.634 18.171,23.351 17.943,24.445 18.035 C 24.755 18.061,24.950 18.113,25.198 18.235 " fill="#1A1C1F" stroke="none" fill-rule="evenodd"></path></svg>
